X: 14854
T: Garrett Barry's
R: jig
M: 6/8
K: Dmixolydian
DEF G3|AGA B/c/de|dcA d2 f|fef dcA/G/|
FEF GFG|A2 A B/c/de|dcA GEA|DAD D2 D|
DEF G3|AGA B/c/de|dcA d2 g|ffd cAG|
F3 G3|AA/A/A cde|dcA GEA|DAD D3||
dcA d2 e|ffd efd|cAB c/c/cd|efg e^cA|
dcA d2 g|ffd efe|dcA GEA|DAD D3|
dcA d2 e|fed efd|cAB c2 d|efg e^cA|
dcA d2 g|f2 d efe|dcA GEA|DED D3||

